src/categories-icons-sprite/categories/svg-cat-accessories-jewelry.svg

<svg width="34" height="26" viewBox="0 0 34 26" fill="none" xmlns="http://www.w3.org/2000/svg">
<path class="p-BCE4F9" d="M23.1752 6.54471L19.2588 2.09706L19.5572 0H25.8843L27.0916 2.09706L23.1752 6.54471Z" fill="#76B7E2"/>
<path class="p-7BCEFC" d="M23.1748 6.54471V0H26.7928L27.0912 2.09706L23.1748 6.54471Z" fill="#4D98CB"/>
<path class="p-FBDA35" d="M10.4525 5.09497C4.67976 5.09497 0 9.77473 0 15.5474C0 21.3202 4.67976 26 10.4525 26C16.2253 26 20.9051 21.3202 20.9051 15.5474C20.9051 9.77466 16.2253 5.09497 10.4525 5.09497ZM10.4525 23.4712C6.08338 23.4712 2.52884 19.9166 2.52884 15.5474C2.52884 11.1783 6.08338 7.62374 10.4525 7.62374C14.8217 7.62374 18.3763 11.1784 18.3763 15.5474C18.3763 19.9167 14.8217 23.4712 10.4525 23.4712Z" fill="#B9DFFC"/>
<path class="p-F7BA35" d="M23.1752 5.09497C17.4024 5.09497 12.7227 9.77473 12.7227 15.5475C12.7227 21.3203 17.4024 26.0001 23.1752 26.0001C28.948 26.0001 33.6277 21.3202 33.6277 15.5474C33.6277 9.77466 28.948 5.09497 23.1752 5.09497ZM23.1752 23.4712C18.806 23.4712 15.2515 19.9166 15.2515 15.5474C15.2515 11.1783 18.806 7.62374 23.1752 7.62374C27.5444 7.62374 31.0989 11.1784 31.0989 15.5474C31.099 19.9167 27.5444 23.4712 23.1752 23.4712Z" fill="#76B7E2"/>
<path class="p-FBDA35" d="M23.143 6.35939C23.143 5.66107 22.5748 5.08691 21.8814 5.17038C19.9836 5.39884 18.2425 6.13618 16.7979 7.24142C17.4798 7.76318 18.0956 8.36683 18.6306 9.03801C19.5843 8.37483 20.6899 7.91541 21.8838 7.72383C22.5733 7.61319 23.143 7.05771 23.143 6.35939Z" fill="#B9DFFC"/>
<path class="p-F7BA35" d="M14.9655 22.0569C14.0118 22.7201 12.9062 23.1795 11.7123 23.3711C11.0228 23.4817 10.4531 24.0372 10.4531 24.7355C10.4531 25.4338 11.0213 26.0079 11.7146 25.9245C13.6124 25.696 15.3536 24.9587 16.7982 23.8534C16.1164 23.3316 15.5005 22.7281 14.9655 22.0569Z" fill="#76B7E2"/>
<path class="p-FBDA35" d="M18.6305 22.0569C17.929 21.5691 17.3095 20.9714 16.7978 20.2884C15.8068 18.9655 15.2191 17.3238 15.2191 15.5473C15.2191 13.7709 15.8068 12.1293 16.7978 10.8063C16.2861 10.1233 15.6665 9.52557 14.9651 9.03784C13.5416 10.8238 12.6904 13.086 12.6904 15.5473C12.6904 18.0087 13.5416 20.2709 14.9651 22.0569C15.5 22.728 16.1159 23.3316 16.7978 23.8534C18.2425 24.9587 19.9836 25.696 21.8814 25.9244C22.5747 26.0079 23.1429 25.4337 23.1429 24.7354C23.1429 24.0371 22.5732 23.4817 21.8838 23.371C20.6898 23.1795 19.5843 22.72 18.6305 22.0569Z" fill="#B9DFFC"/>
<path class="p-F7BA35" d="M18.6309 9.03801C18.096 8.36683 17.4802 7.76324 16.7982 7.24142C15.3536 6.13617 13.6124 5.39883 11.7146 5.17037C11.0213 5.08691 10.4531 5.66106 10.4531 6.35936C10.4531 7.05766 11.0228 7.61312 11.7123 7.72376C12.9062 7.91535 14.0117 8.37476 14.9655 9.03794C15.667 9.52567 16.2865 10.1234 16.7982 10.8064C17.7893 12.1294 18.3769 13.771 18.3769 15.5474C18.3769 17.3239 17.7893 18.9656 16.7982 20.2885C17.3099 20.9715 17.9295 21.5692 18.6309 22.057C20.0544 20.271 20.9056 18.0088 20.9056 15.5474C20.9057 13.0861 20.0544 10.8239 18.6309 9.03801Z" fill="#76B7E2"/>
</svg>

<svg width="34" height="26" fill="none" xmlns="http://www.w3.org/2000/svg"><path class="p-BCE4F9" d="M23.175 6.545L19.26 2.097 19.557 0h6.327l1.208 2.097-3.917 4.448z" fill="#76B7E2"/><path class="p-7BCEFC" d="M23.175 6.545V0h3.618l.298 2.097-3.916 4.448z" fill="#4D98CB"/><path class="p-FBDA35" d="M10.453 5.095C4.68 5.095 0 9.775 0 15.547 0 21.32 4.68 26 10.453 26c5.772 0 10.452-4.68 10.452-10.453 0-5.772-4.68-10.452-10.453-10.452zm0 18.376c-4.37 0-7.924-3.554-7.924-7.924 0-4.369 3.554-7.923 7.924-7.923 4.369 0 7.923 3.554 7.923 7.923 0 4.37-3.554 7.924-7.924 7.924z" fill="#B9DFFC"/><path class="p-F7BA35" d="M23.175 5.095c-5.773 0-10.452 4.68-10.452 10.453C12.723 21.32 17.403 26 23.175 26c5.773 0 10.453-4.68 10.453-10.453 0-5.772-4.68-10.452-10.453-10.452zm0 18.376c-4.369 0-7.924-3.554-7.924-7.924 0-4.369 3.555-7.923 7.924-7.923 4.37 0 7.924 3.554 7.924 7.923 0 4.37-3.555 7.924-7.924 7.924z" fill="#76B7E2"/><path class="p-FBDA35" d="M23.143 6.36c0-.699-.568-1.273-1.262-1.19a10.4 10.4 0 00-5.083 2.071 10.517 10.517 0 011.833 1.797 7.881 7.881 0 013.253-1.314c.69-.11 1.259-.666 1.259-1.365z" fill="#B9DFFC"/><path class="p-F7BA35" d="M14.966 22.057a7.881 7.881 0 01-3.254 1.314c-.69.11-1.259.666-1.259 1.364 0 .699.568 1.273 1.262 1.19a10.4 10.4 0 005.083-2.072 10.52 10.52 0 01-1.832-1.796z" fill="#76B7E2"/><path class="p-FBDA35" d="M18.63 22.057a7.992 7.992 0 01-1.832-1.769 7.883 7.883 0 01-1.579-4.74c0-1.777.588-3.419 1.579-4.742a7.993 7.993 0 00-1.833-1.768 10.407 10.407 0 00-2.275 6.51c0 2.46.852 4.723 2.275 6.509.535.671 1.15 1.275 1.833 1.796a10.4 10.4 0 005.083 2.071c.694.084 1.262-.49 1.262-1.189 0-.698-.57-1.253-1.26-1.364a7.881 7.881 0 01-3.252-1.314z" fill="#B9DFFC"/><path class="p-F7BA35" d="M18.63 9.038a10.512 10.512 0 00-1.832-1.797 10.4 10.4 0 00-5.083-2.07c-.694-.084-1.262.49-1.262 1.188 0 .699.57 1.254 1.26 1.365 1.193.191 2.299.65 3.253 1.314a7.99 7.99 0 011.832 1.768 7.882 7.882 0 011.579 4.741 7.882 7.882 0 01-1.579 4.741 7.994 7.994 0 001.833 1.769 10.408 10.408 0 002.275-6.51c0-2.46-.852-4.723-2.275-6.509z" fill="#76B7E2"/></svg>
